static/img/kroki/369fa6379da362127aba8561dcdc900a.svg

<?xml version="1.0" encoding="us-ascii" standalone="no"?><svg xmlns="http://www.w3.org/2000/svg" xmlns:xlink="http://www.w3.org/1999/xlink" contentStyleType="text/css" height="374px" preserveAspectRatio="none" style="width:465px;height:374px;" version="1.1" viewBox="0 0 465 374" width="465px" zoomAndPan="magnify"><defs/><g><!--class azure_cosmos_db_cassandra_cluster_data_center--><g id="elem_azure_cosmos_db_cassandra_cluster_data_center"><rect codeLine="23" fill="#3D176E" height="39.7891" id="azure_cosmos_db_cassandra_cluster_data_center" rx="2.5" ry="2.5" style="stroke:#000D19;stroke-width:0.5;" width="451" x="7" y="328.58"/><ellipse cx="22" cy="348.4745" fill="#ADD1B2" rx="11" ry="11" style="stroke:#181818;stroke-width:1.0;"/><path d="M24.9688,354.1152 Q24.3906,354.412 23.75,354.5527 Q23.1094,354.7089 22.4063,354.7089 Q19.9063,354.7089 18.5781,353.0683 Q17.2656,351.412 17.2656,348.287 Q17.2656,345.162 18.5781,343.5058 Q19.9063,341.8495 22.4063,341.8495 Q23.1094,341.8495 23.75,342.0058 Q24.4063,342.162 24.9688,342.4589 L24.9688,345.1777 Q24.3438,344.5995 23.75,344.3339 Q23.1563,344.0527 22.5313,344.0527 Q21.1875,344.0527 20.5,345.1308 Q19.8125,346.1933 19.8125,348.287 Q19.8125,350.3808 20.5,351.4589 Q21.1875,352.5214 22.5313,352.5214 Q23.1563,352.5214 23.75,352.2558 Q24.3438,351.9745 24.9688,351.3964 L24.9688,354.1152 Z " fill="#000000"/><text fill="#D9B8FF" font-family="Helvetica" font-size="17" lengthAdjust="spacing" textLength="409" x="41" y="354.3598">azure_cosmos_db_cassandra_cluster_data_center</text></g><!--class microsoft_resource--><g id="elem_microsoft_resource"><rect codeLine="26" fill="#3D176E" height="39.7891" id="microsoft_resource" rx="2.5" ry="2.5" style="stroke:#000D19;stroke-width:0.5;" width="200" x="132.5" y="167.79"/><ellipse cx="147.5" cy="187.6845" fill="#ADD1B2" rx="11" ry="11" style="stroke:#181818;stroke-width:1.0;"/><path d="M150.4688,193.3252 Q149.8906,193.622 149.25,193.7627 Q148.6094,193.9189 147.9063,193.9189 Q145.4063,193.9189 144.0781,192.2783 Q142.7656,190.622 142.7656,187.497 Q142.7656,184.372 144.0781,182.7158 Q145.4063,181.0595 147.9063,181.0595 Q148.6094,181.0595 149.25,181.2158 Q149.9063,181.372 150.4688,181.6689 L150.4688,184.3877 Q149.8438,183.8095 149.25,183.5439 Q148.6563,183.2627 148.0313,183.2627 Q146.6875,183.2627 146,184.3408 Q145.3125,185.4033 145.3125,187.497 Q145.3125,189.5908 146,190.6689 Q146.6875,191.7314 148.0313,191.7314 Q148.6563,191.7314 149.25,191.4658 Q149.8438,191.1845 150.4688,190.6064 L150.4688,193.3252 Z " fill="#000000"/><text fill="#D9B8FF" font-family="Helvetica" font-size="17" lengthAdjust="spacing" textLength="158" x="166.5" y="193.5698">microsoft_resource</text></g><!--class resource--><g id="elem_resource"><rect codeLine="29" fill="#3D176E" height="39.7891" id="resource" rx="2.5" ry="2.5" style="stroke:#000D19;stroke-width:0.5;" width="113" x="176" y="7"/><ellipse cx="191" cy="26.8945" fill="#ADD1B2" rx="11" ry="11" style="stroke:#181818;stroke-width:1.0;"/><path d="M193.9688,32.5352 Q193.3906,32.832 192.75,32.9727 Q192.1094,33.1289 191.4063,33.1289 Q188.9063,33.1289 187.5781,31.4883 Q186.2656,29.832 186.2656,26.707 Q186.2656,23.582 187.5781,21.9258 Q188.9063,20.2695 191.4063,20.2695 Q192.1094,20.2695 192.75,20.4258 Q193.4063,20.582 193.9688,20.8789 L193.9688,23.5977 Q193.3438,23.0195 192.75,22.7539 Q192.1563,22.4727 191.5313,22.4727 Q190.1875,22.4727 189.5,23.5508 Q188.8125,24.6133 188.8125,26.707 Q188.8125,28.8008 189.5,29.8789 Q190.1875,30.9414 191.5313,30.9414 Q192.1563,30.9414 192.75,30.6758 Q193.3438,30.3945 193.9688,29.8164 L193.9688,32.5352 Z " fill="#000000"/><text fill="#D9B8FF" font-family="Helvetica" font-size="17" lengthAdjust="spacing" textLength="71" x="210" y="32.7798">resource</text></g><!--reverse link microsoft_resource to azure_cosmos_db_cassandra_cluster_data_center--><g id="link_microsoft_resource_azure_cosmos_db_cassandra_cluster_data_center"><path codeLine="32" d="M232.5,225.84 C232.5,256.36 232.5,297.69 232.5,328.25 " fill="none" id="microsoft_resource-backto-azure_cosmos_db_cassandra_cluster_data_center" style="stroke:#FFAF37;stroke-width:2.0;"/><polygon fill="none" points="232.5,207.84,226.5,225.84,238.5,225.84,232.5,207.84" style="stroke:#FFAF37;stroke-width:2.0;"/></g><!--reverse link resource to microsoft_resource--><g id="link_resource_microsoft_resource"><path codeLine="33" d="M232.5,65.05 C232.5,95.57 232.5,136.9 232.5,167.46 " fill="none" id="resource-backto-microsoft_resource" style="stroke:#FFAF37;stroke-width:2.0;"/><polygon fill="none" points="232.5,47.05,226.5,65.05,238.5,65.05,232.5,47.05" style="stroke:#FFAF37;stroke-width:2.0;"/></g><!--SRC=[bP9FRy8m3CNl_HIHE2F1q5QGTc58qtP1qzYzSXC78fguSj8XsFRTrmusXPO_sZ7l_Mm_MraPXG9j6RR2eisHVUBNnfN0OCMKcJOpAeX5JslGexHjFf8BLu4vM1HFMBnZC1BQnDlAoBL3xyLDP3s0N2-PAgVsxGE3yxM5BaJKh03lfo6moQk0KHWroSTQjybsqzv83TCxx6342lc030O3DPoqaQkZBkxzHopC3iKmFjgS0dPYTaRyK1TJDaGKihFehtysumiePTnIt4RQwpuJE-GZVR42HPk6rb3uU8mFo4XXM-AiinLEnagd9-7dSt0YczC9s5MCcIHloMSgpsGjWbCCcIogfasc8DIF-hVKKJ-IvEjGQ8raygH3nkYfOecnUwoTOEy_-_t-_wOdhU9kr-GR]--></g></svg>

<svg xmlns="http://www.w3.org/2000/svg" width="465" height="374" viewBox="0 0 465 374"><rect width="451" height="39.789" x="7" y="328.58" fill="#3D176E" rx="2.5" ry="2.5" style="stroke:#000d19;stroke-width:.5"/><circle cx="22" cy="348.474" r="11" fill="#ADD1B2" style="stroke:#181818;stroke-width:1"/><path d="M24.969 354.115q-.578.297-1.219.438-.64.156-1.344.156-2.5 0-3.828-1.64-1.312-1.657-1.312-4.782t1.312-4.781q1.328-1.656 3.828-1.656.703 0 1.344.156.656.156 1.219.453v2.719q-.625-.579-1.219-.844-.594-.281-1.219-.281-1.343 0-2.031 1.078-.687 1.062-.687 3.156t.687 3.172q.688 1.062 2.031 1.062.625 0 1.219-.265.594-.281 1.219-.86z"/><text x="41" y="354.36" fill="#D9B8FF" font-family="Helvetica" font-size="17" textLength="409">azure_cosmos_db_cassandra_cluster_data_center</text><rect width="200" height="39.789" x="132.5" y="167.79" fill="#3D176E" rx="2.5" ry="2.5" style="stroke:#000d19;stroke-width:.5"/><circle cx="147.5" cy="187.685" r="11" fill="#ADD1B2" style="stroke:#181818;stroke-width:1"/><path d="M150.469 193.325q-.578.297-1.219.438-.64.156-1.344.156-2.5 0-3.828-1.64-1.312-1.657-1.312-4.782t1.312-4.781q1.328-1.656 3.828-1.656.703 0 1.344.156.656.156 1.219.453v2.719q-.625-.578-1.219-.844-.594-.281-1.219-.281-1.344 0-2.031 1.078-.687 1.062-.687 3.156t.687 3.172q.688 1.062 2.031 1.062.625 0 1.219-.265.594-.281 1.219-.86z"/><text x="166.5" y="193.57" fill="#D9B8FF" font-family="Helvetica" font-size="17" textLength="158">microsoft_resource</text><rect width="113" height="39.789" x="176" y="7" fill="#3D176E" rx="2.5" ry="2.5" style="stroke:#000d19;stroke-width:.5"/><circle cx="191" cy="26.895" r="11" fill="#ADD1B2" style="stroke:#181818;stroke-width:1"/><path d="M193.969 32.535q-.578.297-1.219.438-.64.156-1.344.156-2.5 0-3.828-1.64-1.312-1.657-1.312-4.782t1.312-4.781q1.328-1.656 3.828-1.656.703 0 1.344.156.656.156 1.219.453v2.719q-.625-.578-1.219-.844-.594-.281-1.219-.281-1.344 0-2.031 1.078-.687 1.062-.687 3.156t.687 3.172q.688 1.062 2.031 1.062.625 0 1.219-.265.594-.281 1.219-.86z"/><text x="210" y="32.78" fill="#D9B8FF" font-family="Helvetica" font-size="17" textLength="71">resource</text><path fill="none" d="M232.5 225.84v102.41m0-120.41-6 18h12zm0-142.79v102.41m0-120.41-6 18h12z" style="stroke:#ffaf37;stroke-width:2"/></svg>
